Newaita-dark/actions/16/layer-visible-on.svg

<?xml version="1.0" encoding="UTF-8"?>
<svg xmlns="http://www.w3.org/2000/svg" xmlns:xlink="http://www.w3.org/1999/xlink" width="16pt" height="16pt" viewBox="0 0 16 16" version="1.1">
<g id="surface1">
<path style=" stroke:none;fill-rule:nonzero;fill:rgb(47.058824%,56.470591%,61.176473%);fill-opacity:1;" d="M 1.652344 0.785156 L 12.238281 0.785156 C 12.785156 0.785156 13.230469 1.230469 13.230469 1.777344 L 13.230469 12.363281 C 13.230469 12.910156 12.785156 13.355469 12.238281 13.355469 L 1.652344 13.355469 C 1.105469 13.355469 0.660156 12.910156 0.660156 12.363281 L 0.660156 1.777344 C 0.660156 1.230469 1.105469 0.785156 1.652344 0.785156 Z M 1.652344 0.785156 "/>
<path style=" stroke:none;fill-rule:nonzero;fill:rgb(74.117649%,74.117649%,74.117649%);fill-opacity:1;" d="M 14.710938 0.785156 C 14.441406 0.785156 14.222656 1.007812 14.222656 1.28125 L 14.222656 14.347656 L 1.15625 14.347656 C 0.882812 14.347656 0.660156 14.566406 0.660156 14.835938 L 0.660156 14.851562 C 0.660156 15.121094 0.882812 15.339844 1.15625 15.339844 L 14.726562 15.339844 C 14.859375 15.339844 14.980469 15.285156 15.066406 15.199219 C 15.070312 15.199219 15.070312 15.199219 15.070312 15.195312 C 15.074219 15.195312 15.074219 15.195312 15.074219 15.191406 C 15.160156 15.105469 15.214844 14.984375 15.214844 14.851562 L 15.214844 1.28125 C 15.214844 1.007812 14.996094 0.785156 14.726562 0.785156 Z M 14.710938 0.785156 "/>
</g>
</svg>

<svg xmlns="http://www.w3.org/2000/svg" width="16pt" height="16pt" viewBox="0 0 16 16"><path d="M1.652.785h10.586c.547 0 .992.445.992.992v10.586a.994.994 0 0 1-.992.992H1.652a.994.994 0 0 1-.992-.992V1.777c0-.547.445-.992.992-.992zm0 0" fill="#78909c"/><path d="M14.71.785a.493.493 0 0 0-.487.496v13.067H1.156a.493.493 0 0 0-.496.488v.016c0 .27.223.488.496.488h13.57a.481.481 0 0 0 .34-.14c.004 0 .004 0 .004-.005.004 0 .004 0 .004-.004a.481.481 0 0 0 .14-.34V1.282a.493.493 0 0 0-.487-.496zm0 0" fill="#bdbdbd"/></svg>
